X: 21103
T: WHAUR WILL BONNIE ANN LIE I' THE CAULD NIGHTS O' WINTER O!
O: Scottish air.
%R: strathspey
B: W. Hamilton "Universal Tune-Book" Vol. 2 Glasgow 1846 p.110 #3
S: http://s3-eu-west-1.amazonaws.com/itma.dl.printmaterial/book_pdfs/hamiltonvol2web.pdf
Z: 2016 John Chambers <jc:trillian.mit.edu>
M: C
L: 1/16
K: A
% - - - - - - - - - - - - - - - - - - - - - - - - -
cB |\
A2a2a3f (ef)(ed) {d}c4 | B2{f}=g2g3e (de)(d=c) {c}B4 |\
A2a2a3f (ef)(ed) d3e | (dc)(BA) (BA)(Bd) c2A2A2 :|
|: (cd) |\
(ed)(cB) (AB)(cd) e2e2 {d}c4 | (d=c)(BA) (=GA)(Bc) d2d2 {c}B4 |\
(ed)(^cB) (AB)(cd) e3e c3e | (dc)(BA) (GA)(Bd) c2A2A2 :|
% - - - - - - - - - - - - - - - - - - - - - - - - -

%%sep 1 1 500
%%sep 1 1 500

